logos/github-actions.svg

<?xml version="1.0" encoding="UTF-8"?>
<svg width="256px" height="256px" viewBox="0 0 256 256" version="1.1" xmlns="http://www.w3.org/2000/svg" xmlns:xlink="http://www.w3.org/1999/xlink" preserveAspectRatio="xMidYMid">
    <title>GitHub Actions</title>
    <g>
				<path d="M53.6039685,0 C83.20802,0 107.207937,23.9920988 107.207937,53.5905987 C107.207937,82.680675 84.0189518,106.340237 55.114959,107.142722 C55.114959,109.604229 55.2236658,114.254369 56.6164527,117.06215 C58.5489445,120.9564 70.1405637,128.207034 81.5082702,128.207034 L81.5082702,128.207034 L85.5922512,128.207034 C88.1588275,109.935846 103.848755,95.8749553 122.83189,95.8749553 C141.738056,95.8749553 157.382168,109.821336 160.043124,127.984427 L160.043124,127.984427 L181.17225,127.984427 C183.834123,109.821336 199.477318,95.8749553 218.383484,95.8749553 C239.158,95.8749553 255.999725,112.711564 255.999725,133.481814 C255.999725,154.251149 239.158,171.087757 218.383484,171.087757 C199.477318,171.087757 183.833206,157.140461 181.17225,138.97737 L181.17225,138.97737 L160.04404,138.97737 C157.383084,157.140461 141.738972,171.087757 122.83189,171.087757 C103.961461,171.087757 88.3384237,157.194509 85.633485,139.080887 L85.633485,139.080887 L81.1179234,139.21555 C73.6830071,139.15967 65.8284723,137.174293 59.5196976,132.887962 C57.799789,131.719045 56.105487,130.49088 54.3379305,129.32746 L54.3379305,129.32746 L54.3374174,131.769284 C54.3277767,132.558717 54.1853819,144.42618 54.1739371,157.602471 L54.1735534,160.392388 C54.1788974,169.03343 54.2472161,177.937094 54.4506363,184.431359 C54.8968779,198.678213 66.4854144,210.176832 79.2733971,212.868271 C80.9355782,213.217297 83.7935402,213.262185 85.5940838,213.106451 C88.1652417,194.841676 103.853336,180.786282 122.83189,180.786282 C143.606406,180.786282 160.448131,197.623807 160.448131,218.393141 C160.448131,239.162475 143.606406,256 122.83189,256 C104.063171,256 88.5088569,242.256073 85.6793004,224.286275 L85.6793004,224.286275 L82.4254937,224.286275 C57.9894145,222.952464 42.7970419,200.539685 43.0618547,182.362853 C43.3963068,159.485622 43.1443223,136.59923 43.1406571,113.716502 L43.1406571,113.716502 L43.1406571,106.152441 C18.5460568,101.286232 7.10542736e-14,79.6063152 7.10542736e-14,53.5905987 C7.10542736e-14,23.9920988 23.9990007,0 53.6039685,0 Z M122.83189,191.779225 C108.130658,191.779225 96.2122511,203.69466 96.2122511,218.393141 C96.2122511,233.091622 108.130658,245.007057 122.83189,245.007057 C137.534038,245.007057 149.452446,233.091622 149.452446,218.393141 C149.452446,203.69466 137.534038,191.779225 122.83189,191.779225 Z M122.83189,106.867899 C108.130658,106.867899 96.2122511,118.783333 96.2122511,133.481814 C96.2122511,148.17938 108.130658,160.094814 122.83189,160.094814 C137.534038,160.094814 149.452446,148.17938 149.452446,133.481814 C149.452446,118.783333 137.534038,106.867899 122.83189,106.867899 Z M218.383484,106.867899 C203.681336,106.867899 191.763845,118.783333 191.763845,133.481814 C191.763845,148.17938 203.681336,160.094814 218.383484,160.094814 C233.085632,160.094814 245.004039,148.17938 245.004039,133.481814 C245.004039,118.783333 233.085632,106.867899 218.383484,106.867899 Z M233.544061,122.276432 C235.638739,124.366008 235.696466,127.723436 233.714494,129.881717 L233.55414,130.050276 L217.244789,146.39495 C215.166604,148.478113 211.83033,148.547735 209.667845,146.592823 L209.495579,146.429761 L201.510879,138.569807 C199.347478,136.439924 199.319988,132.959741 201.450403,130.79688 C203.526755,128.688983 206.884104,128.609284 209.056668,130.577021 L209.225269,130.737334 L213.317496,134.764416 L225.769194,122.286509 C227.913353,120.136473 231.394404,120.132808 233.544061,122.276432 Z M137.554197,122.195909 C139.648875,124.285484 139.706603,127.642913 137.72463,129.80211 L137.564277,129.969752 L121.254926,146.314427 C119.176741,148.39759 115.840467,148.467212 113.677982,146.5123 L113.505716,146.349238 L105.521015,138.489283 C103.357614,136.359401 103.330125,132.879218 105.460539,130.716356 C107.535975,128.608459 110.894241,128.528761 113.066805,130.497414 L113.235405,130.656811 L117.327633,134.683893 L129.779331,122.205986 C131.92349,120.056866 135.404541,120.052285 137.554197,122.195909 Z M53.6039685,10.9929433 C30.0722845,10.9929433 10.9956858,30.0638679 10.9956858,53.5905987 C10.9956858,77.1164136 30.0722845,96.1882542 53.6039685,96.1882542 C77.1356525,96.1882542 96.2122511,77.1164136 96.2122511,53.5905987 C96.2122511,30.0638679 77.1356525,10.9929433 53.6039685,10.9929433 Z M49.1705996,28.1303923 C58.1348325,33.5160185 66.9781128,39.0866925 75.7013569,44.8414984 C83.0089064,49.661904 82.9905803,58.4040422 75.6014794,63.2354408 C66.7224631,69.0452113 57.7023355,74.6158854 48.5429292,79.9474629 C41.0878542,84.2869273 32.7430449,79.2970471 32.540541,70.6034611 C32.4104254,65.0007243 32.5167171,59.392491 32.5093866,53.7860899 C32.5029725,48.3317579 32.3957645,42.8746776 32.5277127,37.4230938 C32.7503754,28.1752802 41.2637851,23.3567067 49.1705996,28.1303923 Z M43.2613347,37.0016976 L43.2613347,40.8702976 C43.2604184,42.785818 43.2604184,44.6756881 43.2595021,46.5444885 L43.2585858,50.2546069 L43.2585858,55.7355052 C43.2595021,59.9659562 43.2613347,64.1295335 43.2686652,68.2931108 C43.2723304,70.252603 44.2921803,70.1729041 45.6116626,69.355762 C53.217012,64.6416215 60.8260266,59.9329774 68.4387064,55.2289137 C69.6967961,54.4529951 69.7325321,53.6422656 68.4982664,52.8635988 C60.3449653,47.7253138 52.1806686,42.6044344 43.2613347,37.0016976 Z" fill="#4A7EBF"></path>
				<path d="M133.22712,223.879078 C136.262846,223.879078 138.724963,221.41849 138.724963,218.382606 C138.724963,215.347638 136.262846,212.886134 133.22712,212.886134 C130.191394,212.886134 127.729277,215.347638 127.729277,218.382606 C127.729277,221.41849 130.191394,223.879078 133.22712,223.879078" fill="#85B3DF"></path>
				<path d="M112.178903,223.879078 C115.214629,223.879078 117.676746,221.41849 117.676746,218.382606 C117.676746,215.347638 115.214629,212.886134 112.178903,212.886134 C109.143178,212.886134 106.68106,215.347638 106.68106,218.382606 C106.68106,221.41849 109.143178,223.879078 112.178903,223.879078" fill="#85B3DF"></path>
				<path d="M218.383759,245.007057 C203.68161,245.007057 191.76412,233.091622 191.76412,218.393141 C191.76412,203.69466 203.68161,191.779225 218.383759,191.779225 C233.084991,191.779225 245.004314,203.69466 245.004314,218.393141 C245.004314,233.091622 233.084991,245.007057 218.383759,245.007057 M218.383759,180.786282 C199.477593,180.786282 183.833481,194.733579 181.172525,212.896669 L175.020439,212.896669 C172.334743,212.896669 170.155764,215.358172 170.155764,218.393141 C170.155764,221.429025 172.334743,223.889613 175.020439,223.889613 L181.172525,223.889613 C183.833481,242.052703 199.477593,256 218.383759,256 C239.158275,256 256,239.162475 256,218.393141 C256,197.623807 239.158275,180.786282 218.383759,180.786282" fill="#85B3DF"></path>
    </g>
</svg>

<svg width="256" height="256" xmlns="http://www.w3.org/2000/svg" preserveAspectRatio="xMidYMid">
	<path d="M53.604 0c29.604 0 53.604 23.992 53.604 53.59 0 29.09-23.189 52.75-52.093 53.553 0 2.461.109 7.111 1.501 9.92 1.933 3.893 13.525 11.144 24.892 11.144h4.084c2.567-18.271 18.257-32.332 37.24-32.332 18.906 0 34.55 13.946 37.211 32.11h21.13c2.661-18.164 18.304-32.11 37.21-32.11 20.775 0 37.617 16.837 37.617 37.607s-16.842 37.606-37.617 37.606c-18.906 0-34.55-13.948-37.21-32.11h-21.129c-2.66 18.162-18.305 32.11-37.212 32.11-18.87 0-34.494-13.893-37.199-32.007l-4.515.135c-7.435-.056-15.29-2.042-21.598-6.328-1.72-1.169-3.415-2.397-5.182-3.56v2.441c-.01.79-.153 12.657-.164 25.833v2.79c.005 8.641.073 17.545.277 24.04.446 14.246 12.034 25.745 24.822 28.436 1.663.35 4.52.394 6.321.238 2.571-18.264 18.26-32.32 37.238-32.32 20.774 0 37.616 16.838 37.616 37.607 0 20.77-16.842 37.607-37.616 37.607-18.769 0-34.323-13.744-37.153-31.714h-3.254c-24.436-1.334-39.628-23.746-39.363-41.923.334-22.877.082-45.764.079-68.646v-7.565C18.546 101.286 0 79.606 0 53.591 0 23.992 23.999 0 53.604 0Zm69.228 191.78c-14.701 0-26.62 11.915-26.62 26.613 0 14.699 11.919 26.614 26.62 26.614 14.702 0 26.62-11.915 26.62-26.614 0-14.698-11.918-26.614-26.62-26.614Zm0-84.912c-14.701 0-26.62 11.915-26.62 26.614 0 14.697 11.919 26.613 26.62 26.613 14.702 0 26.62-11.916 26.62-26.613 0-14.699-11.918-26.614-26.62-26.614Zm95.551 0c-14.702 0-26.62 11.915-26.62 26.614 0 14.697 11.918 26.613 26.62 26.613 14.703 0 26.621-11.916 26.621-26.613 0-14.699-11.918-26.614-26.62-26.614Zm15.161 15.408a5.496 5.496 0 0 1 .17 7.606l-.16.168-16.31 16.345a5.499 5.499 0 0 1-7.576.198l-.172-.163-7.985-7.86a5.496 5.496 0 0 1-.06-7.773 5.499 5.499 0 0 1 7.606-.22l.168.16 4.092 4.027 12.452-12.477a5.498 5.498 0 0 1 7.775-.01Zm-95.99-.08a5.497 5.497 0 0 1 .17 7.606l-.16.168-16.31 16.344a5.499 5.499 0 0 1-7.576.198l-.172-.163-7.985-7.86a5.498 5.498 0 0 1 7.546-7.992l.168.16 4.093 4.027 12.451-12.478a5.499 5.499 0 0 1 7.775-.01ZM53.604 10.993c-23.532 0-42.608 19.07-42.608 42.598 0 23.525 19.076 42.597 42.608 42.597 23.532 0 42.608-19.072 42.608-42.597 0-23.527-19.076-42.598-42.608-42.598ZM49.171 28.13A743.51 743.51 0 0 1 75.7 44.841c7.308 4.82 7.29 13.563-.1 18.394a608.475 608.475 0 0 1-27.058 16.712c-7.455 4.34-15.8-.65-16.002-9.344-.13-5.602-.024-11.21-.032-16.817-.006-5.454-.113-10.911.019-16.363.222-9.248 8.736-14.066 16.643-9.293Zm-5.91 8.872v3.868l-.001 5.674-.001 3.71v5.482c0 4.23.002 8.394.01 12.557.003 1.96 1.023 1.88 2.343 1.063 7.605-4.714 15.214-9.423 22.827-14.127 1.258-.776 1.294-1.587.06-2.365-8.154-5.139-16.318-10.26-25.238-15.862Z" fill="#4A7EBF"/>
	<path d="M133.227 223.88a5.497 5.497 0 1 0 .001-10.996 5.497 5.497 0 0 0 0 10.995" fill="#85B3DF"/>
	<path d="M112.179 223.88a5.497 5.497 0 1 0 0-10.996 5.497 5.497 0 0 0 0 10.995" fill="#85B3DF"/>
	<path d="M218.384 245.007c-14.702 0-26.62-11.915-26.62-26.614 0-14.698 11.918-26.614 26.62-26.614 14.701 0 26.62 11.916 26.62 26.614 0 14.699-11.919 26.614-26.62 26.614m0-64.22c-18.906 0-34.55 13.947-37.211 32.11h-6.153c-2.685 0-4.864 2.461-4.864 5.496 0 3.036 2.179 5.497 4.864 5.497h6.153c2.66 18.163 18.305 32.11 37.21 32.11C239.159 256 256 239.162 256 218.393c0-20.77-16.842-37.607-37.616-37.607" fill="#85B3DF"/>
</svg>
